X:1

T:Devil in the Kitchen [3]

M:C|

L:1/8

R:Highland Fling

S:Jerry O’Brien’s Accordion Instructor (1949)

Z:AK/Fiddler’s Companion

K:A Mix

A2 ed cdef|g3 dg BgdB|A2 ed cdef|gf gB BA A2|A2 ed cdef|g2 dg BgdB|

A2 ed cdef|gf gB BA A2||a2 ed cdef|g2 dg Bgdg|a2 ed cdef|gf gB BA A2|

A2 ed cdef|g2 dg Bgdg|1 afge fdef|gedB BA A2:|2 (3agf (3gfe (3fed (3edc|

(3def (3efg (3agf (3edB||

 

DEVIL IN THE STRAWSTACK. Old‑Time, Breakdown. USA, southwest Virginia, North Carolina. G Major (Jarrell): G Minor (Songer). Standard tuning. AB (Jarrell): AABB (Songer). Learned by Mt. Airy, N.C., fiddler Tommy Jarrell from Zack Payne (or Paine), fiddler, fifer and Civil War veteran who lived near Lambsburg, Va., and who died around 1930. Jarrell called this one of the "Civil War tunes" he learned from Payne. It was one of the few tunes he rendered in standard tuning. Tom Carter and Hal Cannon recorded Jarrell playing it in his home in North Carolina in 1971. On the tape Jarrell introduces the tune:

***

I learned ... this one I'm going to play from old Zek Paine. He was a

Civil War veteran. He set them fingers down on them strings and he was

just as clear as a bell and that bow was just as smooth as a butterfly.  No!

Hell! He could use a fiddle bow any way he wanted to.

***

Songer (Portland Collection), 1997; pg. 60. County 756, Tommy Jarrell ‑ "Sail Away Ladies" (1976). Marimac 9031, Pete Sutherland (Vt.) - “Eight Miles From Town” (set in the key of G Minor).

